X:495
T:Mike Flanagan's
R:reel
D:Frankie Gavin: Croch Suas E
Z:id:hn-reel-495
M:C|
K:Edor
BE~E2 E2ed|BE~E2 FDFA|BE~E2 E2Bd|edBA FDFA:|
|:G2dG eGdG|G2dG AFDF|1 G2dG eGdG|egdB AFDF:|2 EFGA Bdef|dBAG FDFA||
